picto/ski-lift-left.svg

<svg class="color-immutable" width="24" height="24" viewBox="0 0 24 24" fill="none" xmlns="http://www.w3.org/2000/svg"><g clip-path="url(#a)"><path d="M0 22.5v-21C0 .675.675 0 1.5 0h21c.825 0 1.5.675 1.5 1.5v21c0 .825-.675 1.5-1.5 1.5h-21C.675 24 0 23.325 0 22.5Z" fill="#2D327D"/><path d="M13.234 9.591 6.644 3H5.636l7.095 7.094.503-.503ZM16.125 7.231l-3.278 3.278a.543.543 0 1 0 .768.768l2.509-2.509V7.231h.001ZM15.261 12.624l.504-.503-1.231-1.23-.504.503 1.231 1.23Z" fill="#fff"/><path d="m20.891 8.59-2.117-2.118a1.332 1.332 0 0 0-2.273.941v4.502l-1.653 1.653a.374.374 0 0 0-.11.266v4.222a.693.693 0 1 0 1.388 0v-3.432l2.922-2.81a.373.373 0 0 0 .115-.27V8.347l.75.75v2.772a.543.543 0 0 0 1.086 0V8.856a.37.37 0 0 0-.108-.266Z" fill="#fff"/><path d="M7.728 17.298a.987.987 0 0 1-.414-.611h-.863c.045.357.213.688.475.936.398.357.879.61 1.4.736L21 21v-.69L8.83 17.775a3.035 3.035 0 0 1-1.102-.477ZM18.043 14.43a.544.544 0 1 0-1.088 0 .544.544 0 0 0 1.088 0ZM17.842 5.838a1.163 1.163 0 1 0-.002-2.326 1.163 1.163 0 0 0 .002 2.326Z" fill="#fff"/></g><defs><clipPath id="a"><path fill="#fff" d="M0 0h24v24H0z"/></clipPath></defs></svg>

<svg class="color-immutable" width="24" height="24" viewBox="0 0 24 24" fill="none" xmlns="http://www.w3.org/2000/svg"><path d="M0 22.5V1.5C0 0.675 0.675 0 1.5 0H22.5C23.325 0 24 0.675 24 1.5V22.5C24 23.325 23.325 24 22.5 24H1.5C0.675 24 0 23.325 0 22.5Z" fill="#2D327D"/><path d="M13.234 9.591L6.64399 3H5.63599L12.731 10.094L13.234 9.591Z" fill="white"/><path d="M16.125 7.231L12.847 10.509C12.744 10.61 12.687 10.75 12.687 10.893C12.687 11.193 12.93 11.436 13.231 11.436C13.374 11.436 13.512 11.379 13.615 11.277L16.124 8.768V7.231H16.125Z" fill="white"/><path d="M15.261 12.624L15.765 12.121L14.534 10.891L14.03 11.394L15.261 12.624Z" fill="white"/><path d="M20.891 8.59L18.774 6.472C18.523 6.222 18.185 6.082 17.832 6.082C17.097 6.082 16.501 6.679 16.501 7.413V11.915L14.848 13.568C14.777 13.639 14.738 13.734 14.738 13.834V18.056C14.738 18.44 15.048 18.75 15.431 18.75C15.815 18.75 16.126 18.44 16.126 18.056V14.624L19.048 11.814C19.122 11.743 19.163 11.646 19.163 11.544V8.347L19.913 9.097V11.869C19.913 12.169 20.156 12.412 20.457 12.412C20.757 12.412 20.999 12.169 20.999 11.869V8.856C21 8.755 20.961 8.661 20.891 8.59Z" fill="white"/><path d="M7.72799 17.298C7.51599 17.156 7.36799 16.936 7.31399 16.687H6.45099C6.49599 17.044 6.66399 17.375 6.92599 17.623C7.32399 17.98 7.80499 18.233 8.32599 18.359L21 21V20.31L8.82999 17.775C8.43499 17.691 8.05999 17.529 7.72799 17.298Z" fill="white"/><path d="M18.043 14.43C18.043 14.13 17.8 13.886 17.499 13.886C17.2 13.886 16.956 14.13 16.956 14.43C16.956 14.73 17.199 14.974 17.499 14.974C17.799 14.974 18.043 14.73 18.043 14.43Z" fill="white"/><path d="M17.842 5.838C18.483 5.838 19.004 5.317 19.004 4.676C19.004 4.033 18.484 3.513 17.842 3.513C17.2 3.513 16.679 4.033 16.679 4.676C16.678 5.317 17.2 5.838 17.842 5.838Z" fill="white"/></svg>
